packages/gestalt-icons-android/vr-theme/ic_vr_lab-flask_gestalt.svg

<svg width="24" height="24" viewBox="0 0 24 24" fill="none" xmlns="http://www.w3.org/2000/svg">
<path fill-rule="evenodd" clip-rule="evenodd" d="M18 0V2H17C16.4477 2 16 2.44772 16 3V12.5401L21.9332 17.6257C22.6103 18.206 23 19.0533 23 19.9451C23 21.6323 21.6323 23 19.9451 23H4.05489C2.36772 23 1 21.6323 1 19.9451C1 19.0533 1.38969 18.206 2.06679 17.6257L8 12.5401V3C8 2.44772 7.55228 2 7 2H6V0H18ZM9.82929 2C9.93985 2.31278 10 2.64936 10 3V13.4599L3.36838 19.1442C3.13456 19.3446 3 19.6372 3 19.9451C3 20.5277 3.47229 21 4.05489 21H19.9451C20.5277 21 21 20.5277 21 19.9451C21 19.6372 20.8654 19.3446 20.6316 19.1442L14 13.4599V10H12V8H14V6H12V4H14V3C14 2.64936 14.0602 2.31278 14.1707 2H9.82929Z" fill="black"/>
</svg>

<svg xmlns="http://www.w3.org/2000/svg" width="24" height="24"><path d="M18 0v2h-1a1 1 0 0 0-1 1v9.54l5.93 5.09A3.05 3.05 0 0 1 19.95 23H4.05a3.05 3.05 0 0 1-1.98-5.37L8 12.54V3a1 1 0 0 0-1-1H6V0zM9.83 2A3 3 0 0 1 10 3v10.46l-6.63 5.68A1.05 1.05 0 0 0 4.05 21h15.9a1.05 1.05 0 0 0 .68-1.86L14 13.46V10h-2V8h2V6h-2V4h2V3a3 3 0 0 1 .17-1z"/></svg>
